X: 903
T: Alice's
R: reel
M: 4/4
K: Aminor
|:Acec dcAG|A2cA GAEG|Acec d2 (3efg|a2ge dcAG|
Acec dcAG|A2cA GAEG|GEDE GABd|1 e2dB cAAG:|2 ecdB cAAB|
|:c2GE Gcec|d2AF Afed|c2GE Gcec|dfed cAAB|
c2GE Gcec|D2 FA Afed|c2GE Gcec|dfed cAAG:|

